src/assets/skills/javascript-icon.svg

<svg width="122" height="122" viewBox="0 0 122 122" fill="none" xmlns="http://www.w3.org/2000/svg">
<g clip-path="url(#clip0_35_138)">
<path fill-rule="evenodd" clip-rule="evenodd" d="M0 0H122V122H0V0Z" fill="#F7DF1E"/>
<path fill-rule="evenodd" clip-rule="evenodd" d="M32.0786 101.955L41.4113 96.3053C43.2083 99.5022 44.8465 102.203 48.7782 102.203C52.541 102.203 54.9238 100.733 54.9238 94.9947V56.0059H66.3911V95.1536C66.3911 107.028 59.4313 112.429 49.2746 112.429C40.1007 112.429 34.7791 107.683 32.0786 101.955ZM72.6162 100.723L81.9489 95.3224C84.4111 99.3334 87.5981 102.282 93.2474 102.282C97.9932 102.282 101.031 99.9093 101.031 96.6329C101.031 92.7013 97.9237 91.3113 92.6815 89.0178L89.8122 87.7867C81.5418 84.2621 76.0514 79.844 76.0514 70.5113C76.0514 61.9133 82.6042 55.3606 92.8403 55.3606C100.128 55.3606 105.37 57.9023 109.133 64.5344L100.207 70.2631C98.2414 66.7385 96.1167 65.3486 92.8403 65.3486C89.4845 65.3486 87.3499 67.4732 87.3499 70.2631C87.3499 73.6983 89.4746 75.0982 94.3892 77.2229L97.2585 78.454C107.008 82.6339 112.489 86.8931 112.489 96.474C112.489 106.79 104.377 112.439 93.4857 112.439C82.8524 112.439 75.972 107.356 72.6162 100.723Z" fill="black"/>
</g>
<defs>
<clipPath id="clip0_35_138">
<rect width="122" height="122" rx="8" fill="white"/>
</clipPath>
</defs>
</svg>

<svg xmlns="http://www.w3.org/2000/svg" width="122" height="122" fill="none"><g fill-rule="evenodd" clip-path="url(#a)" clip-rule="evenodd"><path fill="#F7DF1E" d="M0 0h122v122H0V0Z"/><path fill="#000" d="m32.079 101.955 9.332-5.65c1.797 3.197 3.435 5.898 7.367 5.898 3.763 0 6.146-1.47 6.146-7.208v-38.99H66.39v39.149c0 11.874-6.96 17.275-17.116 17.275-9.174 0-14.496-4.746-17.196-10.474Zm40.537-1.232 9.333-5.4c2.462 4.01 5.65 6.959 11.298 6.959 4.746 0 7.784-2.373 7.784-5.65 0-3.93-3.107-5.32-8.35-7.614l-2.869-1.231c-8.27-3.525-13.76-7.943-13.76-17.276 0-8.598 6.552-15.15 16.788-15.15 7.288 0 12.53 2.541 16.293 9.173l-8.926 5.73c-1.966-3.525-4.09-4.915-7.367-4.915-3.356 0-5.49 2.124-5.49 4.914 0 3.435 2.125 4.835 7.04 6.96l2.868 1.231c9.75 4.18 15.231 8.44 15.231 18.02 0 10.316-8.112 15.965-19.003 15.965-10.634 0-17.514-5.083-20.87-11.716Z"/></g><defs><clipPath id="a"><rect width="122" height="122" fill="#fff" rx="8"/></clipPath></defs></svg>
